!!!!SEGMENT: pl-wnifc--13846--152_anonim--piesni-polskie-i-ruskie-ludu-galicyjskiego-152-koby-meni-zranku-horiloczki-w-dzbanku.krn
!!!cenid: 18xx:3374
!!!COM: Anonim
!!!COM-rismID: pe30004985
!!!CDT:
!!!CNT:
!!!GTL: Pieśni polskie i ruskie ludu galicyjskiego
!!!OTL: 152. Koby meni zranku horiłoczki w'dzbanku
!!!OMV: 152
!!!PDT: 1833
!!!AGN:
!!!SMS-siglum: PL-Wnifc
!!!SMS-shelfmark: 13846
!!!SMS-shelfwork: 001-152 G
!!!SMS-variant: p
!!!SMS-altvar:
!!!NIFC-rismSourceID: 1001036701
!!!NIFC-rismChildID: 1001039685
!!!NIFC-islandoraID: nifc:210326
!!!URL-pdf-islandora: https://repozytorium.nifc.pl/islandora/object/nifc%3A210326/datastream/PDF/view
!!!URL-scan:
!!!IIIF:
!!!ONB-nifc:
!!!OMD: Allegro Vivace molto.
!!!AIN: 1 piano 1 vox
!!!key: D
**kern	**kern	**dynam	**kern	**text
*part2	*part2	*part2	*part1	*part1
*group2	*group2	*	*group1	*group1
*staff3	*staff2	*	*staff1	*staff1
*I"[FORTEPIAN.]	*I"[FORTEPIAN.]	*	*I"[GŁOS.]	*
*I'	*I'	*	*I'	*
*Ipiano	*Ipiano	*	*Ivox	*
*ICklav	*ICklav	*	*ICvox	*
*IGacmp	*IGacmp	*	*IGsolo	*
*clefF4	*clefG2	*	*clefG2	*
*k[f#c#]	*k[f#c#]	*	*k[f#c#]	*
*D:	*D:	*	*D:	*
*M2/4	*M2/4	*	*M2/4	*
*>[A,B,B]	*>[A,B,B]	*>[A,B,B]	*>[A,B,B]	*>[A,B,B]
=1-	=1-	=1-	=1-	=1-
*>A	*>A	*>A	*>A	*>A
*tremolo	*8ba	*	*	*
!!LO:TX:t=P:problem:tekst: Pieśni polskie i ruskie ludu galicyjskiego, s. 430.
!	!	!	!LO:TX:a:B:t=E.307.	!
8F#\L 8D\	8A/'L	.	8a/	Ko-
8A\	8A/'	.	8a/	-by
8F#\ 8D\	8A/'	.	8a/	me-
!	!LO:TX:b:i:t=ad lib.	!	!	!
8A\J	8A/'J	.	8a/	-ni
*	*X8ba	*	*	*
=2	=2	=2	=2	=2
8F#L\ 8D\	4.dd\^<	.	4.dd\	z_ran-
8A\	.	.	.	.
8F#\ 8D\	.	.	.	.
8A\J	8ff#\	.	8ff#\	-ku
=3	=3	=3	=3	=3
8A\L 8G\ 8D\	8ee\L	.	8ee\	ho-
8c#\	8dd\	.	8dd\	-ri-
8A\ 8G\ 8D\	8ee\	.	8ee\	-łocz-
8c#\J	8ff#\J	.	8ff#\	-ki
!!linebreak:original
=4	=4	=4	=4	=4
8A\L 8F#\ 8D\	4.dd\	.	4.dd\	w’dzban-
8d\	.	.	.	.
8A\ 8F#\ 8D\	.	.	.	.
8d\J	8a/	.	8a/	-ku,
=5	=5	=5	=5	=5
8A\L 8F#\ 8D\	8a/L	.	8a/	i
8d\	8a/	.	8a/	do
8A\ 8F#\ 8D\	8a/	.	8a/	to-
8d\J	8a/J	.	8a/	-ho
=6	=6	=6	=6	=6
8A\L 8F#\ 8D\	4.dd\	.	4.dd\	lul-
8d\	.	.	.	.
8A\ 8F#\ 8D\	.	.	.	.
8d\J	8ff#\	.	8ff#\	-ka,
!!linebreak:original
=7	=7	=7	=7	=7
8A\L 8G\ 8D\	8ee\L	.	8ee\	diw-
8c#\	8dd\	.	8dd\	-czy-
8A\ 8G\ 8D\	8ee\	.	8ee\	-na
8c#\J	8ff#\J	.	8ff#\	Ha-
=8	=8	=8	=8	=8
8A\L 8F#\ 8D\	4.dd\	.	4.dd\	-nul-
8d\	.	.	.	.
8A\ 8F#\ 8D\	.	.	.	.
8d\J	8dd\	.	8dd\	-ka:
*Xtremolo	*	*	*	*
=9!|:	=9!|:	=9!|:	=9!|:	=9!|:
*>B	*>B	*>B	*>B	*>B
4AA/ 4AAA/	8gg\L 8a\	.	8g/	ho-
.	8ff#\ 8a\	.	8f#/	-ri-
4e\ 4c#\ 4A\	8ee\ 8a\	.	8e/	-łocz-
.	8aa\J 8a\	.	8a/	-ku
!!linebreak:original
=10	=10	=10	=10	=10
4D/ 4DD/	(8.ff#\L 8.f#\	>	(8.f#/L	pyw-
.	16dd\Jk)	]	16d/Jk)	.
4f#\ 4d\ 4A\	4dd\	.	4d/	-bym,
=11	=11	=11	=11	=11
4AA/ 4AAA/	8gg\L 8a\	.	8g/	tiu-
.	8ff#\ 8a\	.	8f#/	-tiu-
4e\ 4c#\ 4A\	8ee\ 8a\	.	8e/	-nec
.	8aa\J 8a\	.	8a/	ku-
=12	=12	=12	=12	=12
4D/ 4DD/	(8.ff#\L 8.f#\	>	(8.f#/L	-ryw-
.	16dd\Jk)	]	16d/Jk)	.
4f#\ 4d\ 4A\	4dd\	.	4d/	-bym
!!pagebreak:original
=13	=13	=13	=13	=13
8D/L 8DD/	8a'/L	.	8a/	diw-
8F#'/	8a'/	.	8a/	-czy-
8A'/	8a'/	.	8a/	-nu
8d'/J	8a'/J	.	8a/	Ha-
=14	=14	=14	=14	=14
*tremolo	*	*	*	*
8A\L 8F#\ 8D\	4.dd\	.	4.dd\	-nul-
8d\	.	.	.	.
8A\ 8F#\ 8D\	.	.	.	.
8d\J	8ff#\	.	8ff#\	-ku
=15	=15	=15	=15	=15
8A\L 8G\ 8D\	8ee'\L	.	8ee\	do
8c#\	8dd'\	.	8dd\	se-
8A\ 8G\ 8D\	8ee'\	.	8ee\	-be
8c#\J	8ff#'\J	.	8ff#\	tu-
*Xtremolo	*	*	*	*
=16	=16	=16	=16	=16
(8A\L 8F#\ 8D\	4dd'\	.	4dd\	-ływ-
8d\J)	.	.	.	.
4D\	8dd'\	.	8dd\	-bym.
.	8r	.	8r	.
==	==	==	==	==
*-	*-	*-	*-	*-
!!!system-decoration: g1{(g2)}
!!!RDF**kern: > = above
!!!RDF**kern: < = below
!!!RDF**kern: | = vertical stroke
!!!ENC: Katarzyna Serwa
!!!END: 2021-11-12
!!!YEC: Copyright 2022 Narodowy Instytut Fryderyka Chopina (https://polishscores.org)
!!!YEM: License CC-BY-4.0 (https://creativecommons.org/licenses/by/4.0)
